resources/icons/20px/excavator.svg

<svg width="20" height="20" viewBox="0 0 20 20" fill="none" xmlns="http://www.w3.org/2000/svg">
<path d="M19.16 9.80399L19.76 11.804C19.789 11.949 19.7854 12.0987 19.7496 12.2422C19.7138 12.3856 19.6466 12.5194 19.5529 12.6338C19.4592 12.7482 19.3412 12.8404 19.2076 12.9037C19.0739 12.967 18.9279 12.9999 18.78 13H9C8.73478 13 8.48043 12.8946 8.29289 12.7071C8.10536 12.5196 8 12.2652 8 12V9.27199C8.00046 9.09396 8.04845 8.91928 8.139 8.76599L9.76 5.99999L10.7 4.39999C10.7931 4.2758 10.9139 4.17499 11.0528 4.10557C11.1916 4.03614 11.3448 3.99999 11.5 3.99999H15C15.2652 3.99999 15.5196 4.10535 15.7071 4.29289C15.8946 4.48042 16 4.73478 16 4.99999V8.99999H18.18C18.4111 9.00013 18.635 9.08031 18.8137 9.22688C18.9923 9.37345 19.1147 9.57738 19.16 9.80399ZM10 8.99999H14V5.99999H11.76L10 8.99999ZM4.25 0.499993L8.989 2.99399C9.11589 3.05733 9.22782 3.14699 9.31733 3.25698C9.40685 3.36698 9.47189 3.49478 9.50813 3.63189C9.54437 3.769 9.55098 3.91226 9.5275 4.05212C9.50403 4.19198 9.45102 4.32523 9.372 4.44299L9 4.99999L4 2.99399L2 9.99999H6L3.358 12.642C3.24852 12.7542 3.11297 12.8376 2.96344 12.8847C2.8139 12.9318 2.65504 12.9412 2.501 12.912C0.952 12.595 0 11.94 0 9.99999L2.658 1.13899C2.837 0.543993 3.695 0.221993 4.25 0.499993ZM3 17C3 16.2043 3.31607 15.4413 3.87868 14.8787C4.44129 14.3161 5.20435 14 6 14H17C17.7956 14 18.5587 14.3161 19.1213 14.8787C19.6839 15.4413 20 16.2043 20 17C20 17.7956 19.6839 18.5587 19.1213 19.1213C18.5587 19.6839 17.7956 20 17 20H6C5.20435 20 4.44129 19.6839 3.87868 19.1213C3.31607 18.5587 3 17.7956 3 17ZM5 17C5 17.2652 5.10536 17.5196 5.29289 17.7071C5.48043 17.8946 5.73478 18 6 18H17C17.2652 18 17.5196 17.8946 17.7071 17.7071C17.8946 17.5196 18 17.2652 18 17C18 16.7348 17.8946 16.4804 17.7071 16.2929C17.5196 16.1053 17.2652 16 17 16H6C5.73478 16 5.48043 16.1053 5.29289 16.2929C5.10536 16.4804 5 16.7348 5 17Z" fill="black"/>
</svg>

<svg xmlns="http://www.w3.org/2000/svg" viewBox="0 0 20 20">
  <path d="m19.16 9.804.6 2A1 1 0 0 1 18.78 13H9a1 1 0 0 1-1-1V9.272a1 1 0 0 1 .139-.506L9.76 6l.94-1.6a1 1 0 0 1 .8-.4H15a1 1 0 0 1 1 1v4h2.18a1 1 0 0 1 .98.804M10 9h4V6h-2.24zM4.25.5l4.739 2.494a.998.998 0 0 1 .383 1.449L9 5 4 2.994 2 10h4l-2.642 2.642a.95.95 0 0 1-.857.27C.952 12.595 0 11.94 0 10l2.658-8.861C2.837.544 3.695.222 4.25.5M3 17a3 3 0 0 1 3-3h11a3 3 0 0 1 0 6H6a3 3 0 0 1-3-3m2 0a1 1 0 0 0 1 1h11a1 1 0 0 0 0-2H6a1 1 0 0 0-1 1"/>
</svg>
